!!!OTL: Hammerschmied (2-51) S. 163
!!!id: P0924
**kern
*clefG2
*k[f#]
*G:
*M2/4
{8d
8g
4g
=2
8f#
8g
4a}
=3
{8f#
8g
8a
8a
=4
8a
8b
4a}
=5
{8a
8b
4a
=6
8a
8b
4cc}
=7
{8b
8dd
8.dd
16a
=8
8a
8a
4a}
=9
{8a
8g
8f#
8e
=10
2d}
=11
{4.dd
8ee
=12
8.dd
16cc
4b}
=13
{8.a
16g
8f#
8e
=14
8d
16r
16e
8f#
8d
=15
8g
8f#
8g
8a
=16
8.b
16a
8g
8f#
=17
4e
8.cc
16cc
=18
4.cc
=19
16fffff#
16gggg}
{8d
=20
8.b
16cc
4b
=21
8.a
16g
8.f#
16e
=22
8.d
16e
8f#
8d
=23
4g
8.b
16a
=24
4g}
4r
==
*-
!!!minrhy: 16
!!!meters: 2/4 ]  ZZ[8
!!!cut: Hammerschmied (2-51) S. 163
!!!reg: Lothringen
!!!trd: PINCK, Louis: Verklingende Weisen, Bd 2, Metz 1928
!!!rhy1: X_X_X__  X_X_X__   (x2)
!!!rhy2: X_X_X_X_  X_X_X__
!!!key: P0924  16  G 2/4 ]  ZZ[8
!!!mod: HEPTATONIK IONISCH]  AMBITUS[9
!!!kad: 2242-5341
!!!akz: -5-7_-72_22_32_2-5_55_2-513-64_32-511_
!!!fot: 'a__b__c__d__e__cs"ew_f__
!!!for: 'a__b__a__c__bw_d__e__f__
!!!fok: '/__/__/__^d_\__\__Wa_Ma_
!! PHRAS[VORWIEGEND VOLLTAKTIG]
!!!fkt: Arbeits-, Berufslied
!! LOTH VKL
!! PR[42] 2K[2] 2G[15] 3K[6] 3G[0] 4A[4] 4Ü[0] 5A[0] 6K[0] 6G[2]
!! 7K[0] 7G[0] 8A[0] MEHR[0] SI[28] ABS[53] SR[17] SP[11]
!! ST[10] 2k[4] 2g[15] 3k[6] 3g[4] 4d[2] 4ü[0] 5d[0] 6k[0] 6g[0]
!! 7k[0] 7g[0] 8d[0] mehr[0] si[30] dm[-2] sr[19] sp[11]
!! 1F[21] 2F[55] 3F[14] 4F[2] LF[0] 2P[4] 3P[4] 4P[0] TRI[0] DF[6] AB[56]
!! TF[0] U3K[0] U3[0] U4[0] U4Ü[0] U5[6] U6K[0] U6[0] U7K[0] U7[2]
!! N1[20] N2K[0] N2[17] N3K[0] N3[22] N4[9] N4Ü[0] N5[22] N6K[0] N6[2]
!!!n7k: 0] N7[0] O1[0] O2K[0] O2[0] O3K[0] O3[0] HÖ[0
